icons/circle/48/unity-editor-icon.svg

<svg xmlns="http://www.w3.org/2000/svg" viewBox="0 0 48 48">
 <defs>
  <linearGradient id="linearGradient4244" y1="1" x2="0" y2="47" gradientUnits="userSpaceOnUse">
   <stop style="stop-color:#2a3644;stop-opacity:1"/>
   <stop offset="1" style="stop-color:#222c38;stop-opacity:1"/>
  </linearGradient>
 </defs>
 <path d="m 36.31,5 c 5.859,4.062 9.688,10.831 9.688,18.5 0,12.426 -10.07,22.5 -22.5,22.5 -7.669,0 -14.438,-3.828 -18.5,-9.688 1.037,1.822 2.306,3.499 3.781,4.969 4.085,3.712 9.514,5.969 15.469,5.969 12.703,0 23,-10.298 23,-23 0,-5.954 -2.256,-11.384 -5.969,-15.469 C 39.81,7.306 38.132,6.037 36.31,5 Z m 4.969,3.781 c 3.854,4.113 6.219,9.637 6.219,15.719 0,12.703 -10.297,23 -23,23 -6.081,0 -11.606,-2.364 -15.719,-6.219 4.16,4.144 9.883,6.719 16.219,6.719 12.703,0 23,-10.298 23,-23 0,-6.335 -2.575,-12.06 -6.719,-16.219 z" style="opacity:0.05"/>
 <path d="m 41.28 8.781 c 3.712 4.085 5.969 9.514 5.969 15.469 0 12.703 -10.297 23 -23 23 -5.954 0 -11.384 -2.256 -15.469 -5.969 4.113 3.854 9.637 6.219 15.719 6.219 12.703 0 23 -10.298 23 -23 0 -6.081 -2.364 -11.606 -6.219 -15.719 z" style="opacity:0.1"/>
 <path d="M 31.25,2.375 C 39.865,5.529 46,13.792 46,23.505 c 0,12.426 -10.07,22.5 -22.5,22.5 -9.708,0 -17.971,-6.135 -21.12,-14.75 a 23,23 0 0 0 44.875,-7 23,23 0 0 0 -16,-21.875 z" style="opacity:0.2"/>
 <path d="M 24,1 C 36.703,1 47,11.297 47,24 47,36.703 36.703,47 24,47 11.297,47 1,36.703 1,24 1,11.297 11.297,1 24,1 Z" style="fill:url(#linearGradient4244);fill-opacity:1"/>
 <g>
  <path d="m 40.03 7.531 c 3.712 4.084 5.969 9.514 5.969 15.469 0 12.703 -10.297 23 -23 23 c -5.954 0 -11.384 -2.256 -15.469 -5.969 4.178 4.291 10.01 6.969 16.469 6.969 c 12.703 0 23 -10.298 23 -23 0 -6.462 -2.677 -12.291 -6.969 -16.469 z" style="opacity:0.1"/>
 </g>
 <path d="m 26.908 25 5.202 -9.07 2.514 9.07 -2.514 9.06 -5.202 -9.06 z m -2.535 1.472 5.203 9.06 -9.06 -2.343 -6.546 -6.721 10.404 0 z m 5.201 -12.01 -5.201 9.07 -10.404 0 6.546 -6.722 9.06 -2.344 z m 7.426 7.454 -3.174 -11.916 -11.845 3.193 -1.753 3.111 -3.558 -0.026 -8.67 8.723 l 8.67 8.721 0 0 3.556 -0.027 1.756 3.111 l 11.844 3.193 3.174 -11.914 -1.802 -3.086 1.802 -3.085" style="fill:#000;opacity:0.1;fill-opacity:1;stroke:none;fill-rule:nonzero"/>
 <path d="m 25.908 24 5.202 -9.07 2.514 9.07 -2.514 9.06 -5.202 -9.06 z m -2.535 1.472 5.203 9.06 -9.06 -2.343 -6.546 -6.721 10.404 0 z m 5.201 -12.01 -5.201 9.07 -10.404 0 6.546 -6.722 9.06 -2.344 z m 7.426 7.454 -3.174 -11.916 -11.845 3.193 -1.753 3.111 -3.558 -0.026 -8.67 8.723 l 8.67 8.721 0 0 3.556 -0.027 1.756 3.111 l 11.844 3.193 3.174 -11.914 -1.802 -3.086 1.802 -3.085" style="fill:#e8eef2;fill-opacity:1;stroke:none;fill-rule:nonzero"/>
</svg>

<svg xmlns="http://www.w3.org/2000/svg" viewBox="0 0 48 48">
  <defs>
    <linearGradient id="a" y1="1" x2="0" y2="47" gradientUnits="userSpaceOnUse">
      <stop stop-color="#2a3644"/>
      <stop offset="1" stop-color="#222c38"/>
    </linearGradient>
  </defs>
  <path d="M36.31 5c5.859 4.062 9.688 10.831 9.688 18.5 0 12.426-10.07 22.5-22.5 22.5-7.669 0-14.438-3.828-18.5-9.688a23.24 23.24 0 0 0 3.781 4.969 22.923 22.923 0 0 0 15.469 5.969c12.703 0 23-10.298 23-23a22.92 22.92 0 0 0-5.969-15.469A23.216 23.216 0 0 0 36.31 5zm4.969 3.781A22.911 22.911 0 0 1 47.498 24.5c0 12.703-10.297 23-23 23a22.909 22.909 0 0 1-15.719-6.219C12.939 45.425 18.662 48 24.998 48c12.703 0 23-10.298 23-23 0-6.335-2.575-12.06-6.719-16.219z" opacity=".05"/>
  <path d="M41.28 8.781a22.923 22.923 0 0 1 5.969 15.469c0 12.703-10.297 23-23 23A22.92 22.92 0 0 1 8.78 41.281 22.911 22.911 0 0 0 24.499 47.5c12.703 0 23-10.298 23-23A22.909 22.909 0 0 0 41.28 8.781z" opacity=".1"/>
  <path d="M31.25 2.375C39.865 5.529 46 13.792 46 23.505c0 12.426-10.07 22.5-22.5 22.5-9.708 0-17.971-6.135-21.12-14.75a23 23 0 0 0 44.875-7 23 23 0 0 0-16-21.875z" opacity=".2"/>
  <path d="M24 1c12.703 0 23 10.297 23 23S36.703 47 24 47 1 36.703 1 24 11.297 1 24 1z" fill="url(#a)"/>
  <path d="M40.03 7.531A22.922 22.922 0 0 1 45.999 23c0 12.703-10.297 23-23 23A22.92 22.92 0 0 1 7.53 40.031C11.708 44.322 17.54 47 23.999 47c12.703 0 23-10.298 23-23 0-6.462-2.677-12.291-6.969-16.469z" opacity=".1"/>
  <path d="M26.908 25l5.202-9.07L34.624 25l-2.514 9.06L26.908 25zm-2.535 1.472l5.203 9.06-9.06-2.343-6.546-6.721h10.404zm5.201-12.01l-5.201 9.07H13.969l6.546-6.722 9.06-2.344zM37 21.916L33.826 10l-11.845 3.193-1.753 3.111-3.558-.026L8 25.001l8.67 8.721 3.556-.027 1.756 3.111 11.844 3.193L37 28.085l-1.802-3.086L37 21.914" opacity=".1"/>
  <path d="M25.908 24l5.202-9.07L33.624 24l-2.514 9.06L25.908 24zm-2.535 1.472l5.203 9.06-9.06-2.343-6.546-6.721h10.404zm5.201-12.01l-5.201 9.07H12.969l6.546-6.722 9.06-2.344zM36 20.916L32.826 9l-11.845 3.193-1.753 3.111-3.558-.026L7 24.001l8.67 8.721 3.556-.027 1.756 3.111 11.844 3.193L36 27.085l-1.802-3.086L36 20.914" fill="#e8eef2"/>
</svg>
